src/images/global/icons/alert/warning.svg

<?xml version="1.0" encoding="UTF-8"?>
<svg width="48px" height="48px" viewBox="0 0 48 48" version="1.1" xmlns="http://www.w3.org/2000/svg" xmlns:xlink="http://www.w3.org/1999/xlink">
    <!-- Generator: Sketch 46.2 (44496) - http://www.bohemiancoding.com/sketch -->
    <title>icon/Alert/warning</title>
    <desc>Created with Sketch.</desc>
    <defs>
        <path d="M25.6781417,21.127156 L14.639267,0.965920454 C14.2935641,0.370085785 13.6446264,0 12.9465037,0 C12.2514145,0 11.711247,0.369282 11.3618607,0.96408323 L0.318002391,21.1100468 C-0.0297588904,21.705537 -0.132895569,22.4628177 0.215082386,23.0584228 C0.564577056,23.6543723 1.24894092,24 1.9439218,24 L23.7310036,24 C24.5785227,24 25.4404507,23.6347369 25.790487,23.0367206 C26.1354316,22.4424935 26.0238446,21.7225314 25.6781417,21.127156 L25.6781417,21.127156 Z M12.350001,6.87477693 C12.350001,6.49435676 12.6411021,6.18581797 13.0000221,6.18581797 C13.3589421,6.18581797 13.6500432,6.49435676 13.6500432,6.87477693 L13.6500432,16.7217228 C13.6500432,17.1021429 13.3589421,17.4106817 13.0000221,17.4106817 C12.6411021,17.4106817 12.350001,17.1021429 12.350001,16.7217228 L12.350001,6.87477693 L12.350001,6.87477693 Z M13.0000221,20.5749554 C12.461263,20.5749554 12.0244488,20.1436671 12.0244488,19.6116759 C12.0244488,19.0796848 12.461263,18.6482817 13.0000221,18.6482817 C13.5387813,18.6482817 13.9755954,19.0796848 13.9755954,19.6116759 C13.9755954,20.1436671 13.5387813,20.5749554 13.0000221,20.5749554 L13.0000221,20.5749554 Z" id="path-1"></path>
    </defs>
    <g id="Symbols" stroke="none" stroke-width="1" fill="none" fill-rule="evenodd">
        <g id="icon/Alert/warning">
            <g id="Icon" transform="translate(11.000000, 12.000000)">
                <mask id="mask-2" fill="white">
                    <use xlink:href="#path-1"></use>
                </mask>
                <use id="Mask" fill="#384048" xlink:href="#path-1"></use>
                <g id="Color/Messaging/Warning" mask="url(#mask-2)" fill="#615D14">
                    <g transform="translate(-11.000000, -12.000000)" id="Swatch">
                        <rect x="0" y="0" width="48" height="48"></rect>
                    </g>
                </g>
            </g>
        </g>
    </g>
</svg>

<?xml version="1.0" encoding="utf-8"?>
<!-- Generator: Adobe Illustrator 21.0.2, SVG Export Plug-In . SVG Version: 6.00 Build 0)  -->
<svg version="1.1" id="icon_x2F_Alert_x2F_warning-Layer_1" xmlns="http://www.w3.org/2000/svg" xmlns:xlink="http://www.w3.org/1999/xlink" x="0px" y="0px"
	 viewBox="0 0 48 48" style="enable-background:new 0 0 48 48;" xml:space="preserve">
<title>icon/Alert/warning</title>
<desc>Created with Sketch.</desc>
<g id="icon_x2F_Alert_x2F_warning-Symbols">
	<g id="icon_x2F_Alert_x2F_warning">
		<g id="icon_x2F_Alert_x2F_warning-Icon" transform="translate(11.000000, 12.000000)">
			<g id="icon_x2F_Alert_x2F_warning-Mask">
				<path id="icon_x2F_Alert_x2F_warning-path-1_1_" style="fill:#384048;" d="M25.7,21.1L14.6,1c-0.3-0.6-1-1-1.7-1c-0.7,0-1.2,0.4-1.6,1l-11,20.1
					c-0.3,0.6-0.5,1.4-0.1,1.9c0.3,0.6,1,0.9,1.7,0.9h21.8c0.8,0,1.7-0.4,2.1-1C26.1,22.4,26,21.7,25.7,21.1L25.7,21.1z M12.4,6.9
					c0-0.4,0.3-0.7,0.7-0.7s0.7,0.3,0.7,0.7v9.8c0,0.4-0.3,0.7-0.7,0.7s-0.7-0.3-0.7-0.7V6.9L12.4,6.9z M13,20.6c-0.5,0-1-0.4-1-1
					c0-0.5,0.4-1,1-1s1,0.4,1,1C14,20.1,13.5,20.6,13,20.6L13,20.6z"/>
			</g>
			<defs>
				<filter id="icon_x2F_Alert_x2F_warning-Adobe_OpacityMaskFilter" filterUnits="userSpaceOnUse" x="-11" y="-12" width="48" height="48">
					<feColorMatrix  type="matrix" values="1 0 0 0 0  0 1 0 0 0  0 0 1 0 0  0 0 0 1 0"/>
				</filter>
			</defs>
			<mask maskUnits="userSpaceOnUse" x="-11" y="-12" width="48" height="48" id="icon_x2F_Alert_x2F_warning-mask-2">
				<g style="filter:url(#icon_x2F_Alert_x2F_warning-Adobe_OpacityMaskFilter);">
					<path id="icon_x2F_Alert_x2F_warning-path-1" style="fill:#FFFFFF;" d="M25.7,21.1L14.6,1c-0.3-0.6-1-1-1.7-1c-0.7,0-1.2,0.4-1.6,1l-11,20.1
						c-0.3,0.6-0.5,1.4-0.1,1.9c0.3,0.6,1,0.9,1.7,0.9h21.8c0.8,0,1.7-0.4,2.1-1C26.1,22.4,26,21.7,25.7,21.1L25.7,21.1z M12.4,6.9
						c0-0.4,0.3-0.7,0.7-0.7s0.7,0.3,0.7,0.7v9.8c0,0.4-0.3,0.7-0.7,0.7s-0.7-0.3-0.7-0.7V6.9L12.4,6.9z M13,20.6c-0.5,0-1-0.4-1-1
						c0-0.5,0.4-1,1-1s1,0.4,1,1C14,20.1,13.5,20.6,13,20.6L13,20.6z"/>
				</g>
			</mask>
			<g id="icon_x2F_Alert_x2F_warning-Color_x2F_Messaging_x2F_Warning" style="mask:url(#icon_x2F_Alert_x2F_warning-mask-2);">
				<g id="icon_x2F_Alert_x2F_warning-Swatch" transform="translate(-11.000000, -12.000000)">
					<rect style="fill:#615D14;" width="48" height="48"/>
				</g>
			</g>
		</g>
	</g>
</g>
</svg>
